X:1
T:Assumpta Est Maria
T:Gregor Aichinger edit BMarble for sat (alto/tenor adjusted in last two bars)
T:Assumpta Est Maria
T:Copyright © 2016 by The Choral Public Domain Library. Edition may be freely distributed, duplicated, performed or recorded.
T:Copyright © 2016 by The Choral Public Domain Library. Edition may be freely distributed, duplicated, performed or recorded.
T:Copyright © 2016 by The Choral Public Domain Library. Edition may be freely distributed, duplicated, performed or recorded.
T:Copyright © 2016 by The Choral Public Domain Library. Edition may be freely distributed, duplicated, performed or recorded.
T:Copyright © 2016 by The Choral Public Domain Library. Edition may be freely distributed, duplicated, performed or recorded.
T:Copyright © 2016 by The Choral Public Domain Library. Edition may be freely distributed, duplicated, performed or recorded.
C:Gregor Aichinger
C:edit BMarble for sat
C:(alto/tenor adjusted in last two bars)
Z:Copyright © 2016 by The Choral Public Domain Library. Edition may be freely distributed, duplicated, performed or recorded.
%%score [ 1 2 3 ]
L:1/8
Q:1/2=100
M:4/2
K:F
V:1 treble nm="Soprano" snm="S."
V:2 treble nm="Alto" snm="A."
V:3 treble-8 transpose=-12 nm="Tenor" snm="T./B."
V:1
"^Offertory, Assumption:Maty is taken up to heaven: the angels praise and bless the Lord." z4 C4 C2 D2 E2 F2 | %1
w: As- sum- * * *|
 G2 E2 F2 G2 A2 B2 c4- | c4 B4 A4 G4 | G8 C8 | z4 C4 C2 D2 E2 F2 | G2 E2 F2 G2 A2 B2 c4- | %6
w: |* pta- est- Ma-|ri- a,-|as- sum- * * *||
 c4 c4 B4 A4 | (G6 A2 B8) | A4 A4 G8 | A4 F2 G2 A2 B2 c2 A2 | B2 A2 B2 c2 d4 c4 | c4 =B4 c4 A2 G2 | %12
w: * pta- est- Ma-|ri- * *|a- in- coe-|lum,- gau- * * * * *|* * * * * dent-|An- ge- li,- gau- *|
 F2 D2 E2 F2 G2 F2 D2 E2 | F4 E4 D6 D2 | C8 z4 C4 | (C2 B,2 C2 D2 C8) | C4 c2 c2 B4 A4 | F4 G4 A8 | %18
w: |* dent- An- ge-|li,- lau-|dan- * * * *|tes- be- ne- di- cunt-|Do- mi- num,|
 A4 d6 cB A4- | A2 B2 c6 BA G4- | G2 A2 B6 AG F4- | F2 G2 A2 B2 c2 BA G2 A2 | B6 AG F6 G2 | %23
w: Al- le- * * *|||||
 A4 G2 F2 E4 G4- | (G2 FE D4) C8 | z4 C4 (C2 B,2 C2 D2 | C8) C4 c2 c2 | B4 A4 F4 G4 | A8 A4 d4- | %29
w: * * * * lu-|* * * * ia,-|lau- dan- * * *|* tes- be- ne-|di- cunt- Do- mi-|num,- Al- le-|
 d2 cB A6 B2 c4- | c2 BA G6 A2 B4- | B2 AG F6 G2 A2 B2 | c2 BA G2 A2 B6 AG | F6 G2 A4 G2 F2 | %34
w: |||||
 E2 F2 G6 F2 F4- | F4 E4 F8- |"^rit." F16- | F16- | F16 |] %39
w: |* lu- ia.|_|||
V:2
 F,4 F,2 G,2 A,2 B,2 C2 A,2 | B,2 C2 D2 E2 F4 F4 | E4 D4 C6 B,A, | G,2 A,2 B,2 C2 A,4 F,4 | %4
w: As- sum- * * * * *|* * * * * pta-|est- Ma- ri- * *|* * * * * a,-|
 F,4 F,2 G,2 A,2 B,2 C2 A,2 | B,2 C2 D2 E2 F4 F4 | E4 C4 D2 E2 F2 D2 | E2 F2 G4 D4 G4- | %8
w: as- sum- * * * * *|* * * * * pta-|est- Ma- ri- * * *|* * * a,- in|
 G4 (F6 ED E4) | F4 D2 E2 F2 D2 E2 F2 | G2 F2 D2 E2 F4 E4 | D6 D2 C8 | z16 | z16 | z4 A4 (A6 G2 | %15
w: _ coe- * * *|lum,- gau- * * * * *|* * * * * dent-|An- ge- li,-|||lau- dan- *|
 A2 B2 A4) A4 A2 A2 | A4 A4 (G4 F2 E2 | D6) D2 ^C4 E4 | F4 D4 (F6 ED | E4) A4 E6 F2 | G6 FE D6 E2 | %21
w: * * * tes- be- ne-|di- cunt- Do- * *|* mi- num,- Al-|le- lu- ia, _ _|_ al- le- *||
 F2 ED C2 D2 E2 F2 G4- | G2 FE D6 CB, A,4- | A,2 B,2 C6 B,A, G,2 A,2 | B,2 C4 =B,2 C4 A4 | %25
w: |||* * lu- ia,- lau-|
 (A6 G2 A2 B2 A4) | A4 A2 A2 A4 A4 | (G4 F2 E2 D6) D2 | ^C4 E4 F4 D4 | (F6 ED E4) A4 | %30
w: dan- * * * *|tes- be- ne- di- cunt-|Do- * * * mi-|num,- Al- le- lu-|ia, _ _ _ al-|
 E6 F2 G6 FE | D6 E2 F2 ED C2 D2 | E2 F2 G6 FE D4- | D2 CB, A,6 B,2 C4- | %34
w: le- * * * *||||
 C2 B,A, G,2 A,2 B,2 A,2 G,2 F,2 | G,4 G,4 F,4 (A,2 B,2 | C2 A,2) D8 C4 | D4 D8 C4- | C4 B,4 A,8 |] %39
w: |* lu- ia,- al- *|* * le- lu-|ia, al- le-|* lu- ia.-|
V:3
 z16 | z16 | z8 C4 C2 D2 | E2 F2 G2 E2 F2 G2 A2 B2 | c12 A4 | G4 F4 (F6 G2 | A8) G4 F4 | %7
w: ||As- sum- *||* pta-|est- Ma- ri- *|* a- in-|
 C2 D2 E2 F2 G2 A2 B2 G2 | A6 B2 c8 | F8 z8 | z16 | z8 z4 F2 G2 | A2 B2 c2 A2 B2 A2 B2 c2 | %13
w: coe- * * * * * * *||lum,-||gau- *||
 d4 c4 c4 =B4 | c4 F4 (F6 E2 | F2 G2 F4) F8 | F4 F4 G4 A4 | B6 B2 A8 | D8 d6 cB | A6 B2 c6 BA | %20
w: * dent- An- ge-|li,- lau- dan- *|* * * tes-|be- ne- di- cunt-|Do- mi- num,-|Al- le- * *||
 G6 A2 B6 AG | F6 ED C2 D2 E2 F2 | G6 FE D6 E2 | F4 E2 D2 C2 D2 E2 F2 | G4 G4 C4 F4 | %25
w: ||||* lu- ia,- lau-|
 (F6 E2 F2 G2 F4) | F8 F4 F4 | G4 A4 B6 B2 | A8 D8 | d6 cB A6 B2 | c6 BA G6 A2 | B6 AG F6 ED | %32
w: dan- * * * *|tes- be- ne-|di- cunt- Do- mi-|num,- Al-|le- * * * *|||
 C2 D2 E2 F2 G6 FE | D6 E2 F4 E2 D2 | C4 _E4 D8 | C8 (F6 G2 | A2 F2 B8) A4 | B4 D4 (F6 E2 | %38
w: ||* lu- ia,-|al- le- *|* * * lu-|ia,- al- le- *|
 D2 C2) (D2 E2) F8 |] %39
w: * * lu- * ia.-|

